public/avatar/shoe/126.svg

<svg xmlns:xlink="http://www.w3.org/1999/xlink" height="38.3" width="36.05" xmlns="http://www.w3.org/2000/svg"><use height="16.8" transform="translate(10.7 10.85)" width="21.85" xlink:href="#a"/><defs><g id="a" fill-rule="evenodd"><path d="M5.4-2.15Q7.15.3 7.95 4.25q1.3 1.8.5 3.25-.3.6-5.3 2.7-5.4 2.3-8.3 2.45-2.65.2-5.5-.9-2.4-.8-2.3-1.25l.15-1.2q.55-2.55 2-3.9l2.95-2.7 2-2.2 2.05-3.3Q-2.05-4.15.95-4q3.2.1 4.45 1.85" transform="translate(13.1 4)"/><path d="M6.3 3.15q-3 2.8-4.8 3.65l-12.3.55 1.05-1.5q2.5-1.9 3.3-2.8Q-4.35.6-3.9-.75q.4-1.5 3.75-1.95 1.95-.25 4.1.75.8.4 2.35 5.1" fill="#8c8575" transform="translate(13.1 4)"/><path d="M7.6 5.95q-8.7 6.25-19.35 4.15l.35-1.7q.65-1.8 1.9-2.25Q2.25 6.05 6 2.55l1.6 3.4" fill="#8c8575" transform="translate(13.1 4)"/><path d="m7.15 5.4.4.6-.1 1.1q-1 1.95-9.15 3.65l-7.05.3-2.8-.5.2-1.3q7 1.55 13.45-.95 3.25-1.25 5.05-2.9" fill="#8c8575" transform="translate(13.1 4)"/><path d="M4.6 8.15 4.45 5.6q0-.8.5-1.1l1.1-.65h.25l.65 1.7L6 7.45l-1.4.7" fill="#8c8575" transform="translate(13.1 4)"/><path d="M7.05 6.65q-2.2 3.45-10.2 3.9 10.1-2 9.5-6.6 1.4 2.25.7 2.7" fill="#8c8575" transform="translate(13.1 4)"/><path d="m7.55 6-.05-.05.1-.05v.05L7.55 6m-19.15 4.15-.15-.05v-.15l.2.1-.05.1" fill="#070706" transform="translate(13.1 4)"/><path d="M7.45 7.1q-1 1.95-9.15 3.65l-4.75.4-5.1-.6-.05-.4.05-.1 2.4.05 5.65-.45L-.2 9q2.6-.6 4.7-1.55-2.75 2.15-7.65 3.1 8-.45 10.2-3.9l.2-.6.25-.1.05.05-.1 1.1" fill="#070706" transform="translate(13.1 4)"/><path d="M7.05 6.65q-2.2 3.45-10.2 3.9 4.9-.95 7.65-3.1l2.75-1.4-.2.6" fill="#070706" transform="translate(13.1 4)"/><path d="M8.2 8.5q-4.25 2.65-9.8 3.75l-5.3.55q-5 0-5.8-1-.4-.4-.4-1.05l.25-.85 1.1.1v.1l.15.05.1.45 5.1.6 4.7-.45Q6.45 9.1 7.45 7.1l.1-1.1.05-.05V5.9l.1-.05.65 1.85-.15.8" fill="#070706" transform="translate(13.1 4)"/><path d="M0-3.1q2-.25 4.3.75.8.45 2.45 5.4-3.15 3-5.05 3.85l-13 .6 1.15-1.6Q-7.55 3.95-6.7 3-4.45.4-4-1.05q.45-1.6 4-2.05" fill="#fff" transform="translate(13.1 4)"/><path d="M8.15 6.05q-9.2 6.6-20.5 4.35l.4-1.75q.7-1.85 2.05-2.4Q2.5 6.15 6.45 2.4l1.7 3.65" fill="#962f87" transform="translate(13.1 4)"/><path d="m7.65 5.45.45.65L8 7.25Q6.85 9.5-1.65 11.1l-7.5.35-2.9-.55.15-1.4q7.45 1.65 14.25-1 3.4-1.3 5.3-3.05" fill="#962f87" transform="translate(13.1 4)"/><path d="m5 8.4-.2-2.75q0-.8.6-1.15l1.1-.7h.25l.7 1.8-1 2L5 8.4" fill="#ea9ddb" transform="translate(13.1 4)"/><path d="M7.6 6.8q-2.35 3.6-10.8 4.1Q7.45 8.75 6.85 3.95 8.3 6.3 7.6 6.8" fill="#7c0666" transform="translate(13.1 4)"/><path d="M7.15 3.35Q3.85 5.2.7 5.65l-7.95.5-2.65-.3 9.65-.9q3.4-.5 6.9-2.4l.5.8" transform="translate(13.1 4)"/><path d="M6.35 2.65 3.65 3.9 3.4 2.05l2.3.1.65.5M4.3.4 5-.7l.7 1.9-2.35-.1.95-.7" fill="#c7bda6" transform="translate(13.1 4)"/><path d="M4.25-2.4q.55.3 0 .65-1.65.75-3.9.6L-3-2.1l.55-.45 2.6-.55q2.75-.2 4.1.7" fill="#8c8575" transform="translate(13.1 4)"/><path d="m-8.6 6.85-.75.75-2.4 1.5.35-.8 1.25-1.65 1.55.2" fill="#ffc7c7" transform="translate(13.1 4)"/></g></defs></svg>

<?xml version="1.0" encoding="UTF-8" standalone="no"?>
<svg xmlns:xlink="http://www.w3.org/1999/xlink" height="38.3px" width="36.05px" xmlns="http://www.w3.org/2000/svg">
  <g transform="matrix(1.0, 0.0, 0.0, 1.0, 23.8, 14.85)">
    <use height="16.8" transform="matrix(1.0, 0.0, 0.0, 1.0, -13.1, -4.0)" width="21.85" xlink:href="#shape0"/>
  </g>
  <defs>
    <g id="shape0" transform="matrix(1.0, 0.0, 0.0, 1.0, 13.1, 4.0)">
      <path d="M5.4 -2.15 Q7.15 0.3 7.95 4.25 9.25 6.05 8.45 7.5 8.15 8.1 3.15 10.2 -2.25 12.5 -5.15 12.65 -7.8 12.85 -10.65 11.75 -13.05 10.95 -12.95 10.5 L-12.8 9.3 Q-12.25 6.75 -10.8 5.4 L-7.85 2.7 -5.85 0.5 -3.8 -2.8 Q-2.05 -4.15 0.95 -4.0 4.15 -3.9 5.4 -2.15" fill="#000000" fill-rule="evenodd" stroke="none"/>
      <path d="M6.3 3.15 Q3.3 5.95 1.5 6.8 L-10.8 7.35 -9.75 5.85 Q-7.25 3.95 -6.45 3.05 -4.35 0.6 -3.9 -0.75 -3.5 -2.25 -0.15 -2.7 1.8 -2.95 3.95 -1.95 4.75 -1.55 6.3 3.15" fill="#8c8575" fill-rule="evenodd" stroke="none"/>
      <path d="M7.6 5.95 Q-1.1 12.2 -11.75 10.1 L-11.4 8.4 Q-10.75 6.6 -9.5 6.15 2.25 6.05 6.0 2.55 L7.6 5.95" fill="#8c8575" fill-rule="evenodd" stroke="none"/>
      <path d="M7.15 5.4 L7.55 6.0 7.45 7.1 Q6.45 9.05 -1.7 10.75 L-8.75 11.05 -11.55 10.55 -11.35 9.25 Q-4.35 10.8 2.1 8.3 5.35 7.05 7.15 5.4" fill="#8c8575" fill-rule="evenodd" stroke="none"/>
      <path d="M4.6 8.15 L4.45 5.6 Q4.45 4.8 4.95 4.5 L6.05 3.85 6.3 3.85 6.95 5.55 6.0 7.45 4.6 8.15" fill="#8c8575" fill-rule="evenodd" stroke="none"/>
      <path d="M7.05 6.65 Q4.85 10.1 -3.15 10.55 6.95 8.55 6.35 3.95 7.75 6.2 7.05 6.65" fill="#8c8575" fill-rule="evenodd" stroke="none"/>
      <path d="M7.55 6.0 L7.5 5.95 7.6 5.9 7.6 5.95 7.55 6.0 M-11.6 10.15 L-11.75 10.1 -11.75 9.95 -11.55 10.05 -11.6 10.15" fill="#070706" fill-rule="evenodd" stroke="none"/>
      <path d="M7.45 7.1 Q6.45 9.05 -1.7 10.75 L-6.45 11.15 -11.55 10.55 -11.6 10.15 -11.55 10.05 -9.15 10.1 -3.5 9.65 -0.2 9.0 Q2.4 8.4 4.5 7.45 1.75 9.6 -3.15 10.55 4.85 10.1 7.05 6.65 L7.25 6.05 7.5 5.95 7.55 6.0 7.45 7.1" fill="#070706" fill-rule="evenodd" stroke="none"/>
      <path d="M7.05 6.65 Q4.85 10.1 -3.15 10.55 1.75 9.6 4.5 7.45 L7.25 6.05 7.05 6.65" fill="#070706" fill-rule="evenodd" stroke="none"/>
      <path d="M8.2 8.5 Q3.95 11.15 -1.6 12.25 L-6.9 12.8 Q-11.9 12.8 -12.7 11.8 -13.1 11.4 -13.1 10.75 L-12.85 9.9 -11.75 10.0 -11.75 10.1 -11.6 10.15 -11.5 10.6 -6.4 11.2 -1.7 10.75 Q6.45 9.1 7.45 7.1 L7.55 6.0 7.6 5.95 7.6 5.9 7.7 5.85 8.35 7.7 8.2 8.5" fill="#070706" fill-rule="evenodd" stroke="none"/>
      <path d="M0.0 -3.1 Q2.0 -3.35 4.3 -2.35 5.1 -1.9 6.75 3.05 3.6 6.05 1.7 6.9 L-11.3 7.5 -10.15 5.9 Q-7.55 3.95 -6.7 3.0 -4.45 0.4 -4.0 -1.05 -3.55 -2.65 0.0 -3.1" fill="#ffffff" fill-rule="evenodd" stroke="none"/>
      <path d="M8.15 6.05 Q-1.05 12.65 -12.35 10.4 L-11.95 8.65 Q-11.25 6.8 -9.9 6.25 2.5 6.15 6.45 2.4 L8.15 6.05" fill="#962f87" fill-rule="evenodd" stroke="none"/>
      <path d="M7.65 5.45 L8.1 6.1 8.0 7.25 Q6.85 9.5 -1.65 11.1 L-9.15 11.45 -12.05 10.9 -11.9 9.5 Q-4.45 11.15 2.35 8.5 5.75 7.2 7.65 5.45" fill="#962f87" fill-rule="evenodd" stroke="none"/>
      <path d="M5.0 8.4 L4.8 5.65 Q4.8 4.85 5.4 4.5 L6.5 3.8 6.75 3.8 7.45 5.6 6.45 7.6 5.0 8.4" fill="#ea9ddb" fill-rule="evenodd" stroke="none"/>
      <path d="M7.6 6.8 Q5.25 10.4 -3.2 10.9 7.45 8.75 6.85 3.95 8.3 6.3 7.6 6.8" fill="#7c0666" fill-rule="evenodd" stroke="none"/>
      <path d="M7.15 3.35 Q3.85 5.2 0.7 5.65 L-7.25 6.15 -9.9 5.85 -0.25 4.95 Q3.15 4.45 6.65 2.55 L7.15 3.35" fill="#000000" fill-rule="evenodd" stroke="none"/>
      <path d="M6.35 2.65 L3.65 3.9 3.4 2.05 5.7 2.15 6.35 2.65" fill="#c7bda6" fill-rule="evenodd" stroke="none"/>
      <path d="M4.3 0.4 L5.0 -0.7 5.7 1.2 3.35 1.1 4.3 0.4" fill="#c7bda6" fill-rule="evenodd" stroke="none"/>
      <path d="M4.25 -2.4 Q4.8 -2.1 4.25 -1.75 2.6 -1.0 0.35 -1.15 L-3.0 -2.1 -2.45 -2.55 0.15 -3.1 Q2.9 -3.3 4.25 -2.4" fill="#8c8575" fill-rule="evenodd" stroke="none"/>
      <path d="M-8.6 6.85 L-9.35 7.6 -11.75 9.1 -11.4 8.3 -10.15 6.65 -8.6 6.85" fill="#ffc7c7" fill-rule="evenodd" stroke="none"/>
    </g>
  </defs>
</svg>
